public/images/icon-linkedin.svg

<svg width="40" height="40" viewBox="0 0 25 24" fill="none" xmlns="http://www.w3.org/2000/svg">
<g id="icon/linkedin">
<path id="vector" d="M21.5 4.32353V19.6765C21.5 20.0275 21.3606 20.3641 21.1123 20.6123C20.8641 20.8606 20.5275 21 20.1765 21H4.82353C4.47251 21 4.13586 20.8606 3.88765 20.6123C3.63944 20.3641 3.5 20.0275 3.5 19.6765V4.32353C3.5 3.97251 3.63944 3.63586 3.88765 3.38765C4.13586 3.13944 4.47251 3 4.82353 3H20.1765C20.5275 3 20.8641 3.13944 21.1123 3.38765C21.3606 3.63586 21.5 3.97251 21.5 4.32353V4.32353ZM8.79412 9.88235H6.14706V18.3529H8.79412V9.88235ZM9.03235 6.97059C9.03375 6.77036 8.99569 6.57182 8.92035 6.3863C8.84502 6.20078 8.73387 6.03191 8.59328 5.88935C8.45268 5.74678 8.28537 5.6333 8.10091 5.5554C7.91646 5.47749 7.71846 5.43668 7.51824 5.43529H7.47059C7.0634 5.43529 6.6729 5.59705 6.38497 5.88497C6.09705 6.1729 5.93529 6.5634 5.93529 6.97059C5.93529 7.37777 6.09705 7.76828 6.38497 8.05621C6.6729 8.34413 7.0634 8.50588 7.47059 8.50588V8.50588C7.67083 8.51081 7.87008 8.47623 8.05696 8.40413C8.24383 8.33202 8.41467 8.2238 8.5597 8.08565C8.70474 7.94749 8.82113 7.78212 8.90223 7.59897C8.98333 7.41582 9.02755 7.21848 9.03235 7.01824V6.97059ZM18.8529 13.2071C18.8529 10.6606 17.2329 9.67059 15.6235 9.67059C15.0966 9.6442 14.5719 9.75644 14.1019 9.9961C13.6318 10.2358 13.2328 10.5945 12.9447 11.0365H12.8706V9.88235H10.3824V18.3529H13.0294V13.8476C12.9911 13.3862 13.1365 12.9283 13.4339 12.5735C13.7313 12.2186 14.1567 11.9954 14.6176 11.9524H14.7182C15.56 11.9524 16.1847 12.4818 16.1847 13.8159V18.3529H18.8318L18.8529 13.2071Z" fill="black"/>
</g>
</svg>

<svg xmlns="http://www.w3.org/2000/svg" width="40" height="40" fill="none" viewBox="0 0 25 24"><path fill="#000" d="M21.5 4.324v15.353A1.323 1.323 0 0 1 20.177 21H4.824A1.323 1.323 0 0 1 3.5 19.677V4.324A1.324 1.324 0 0 1 4.824 3h15.353A1.323 1.323 0 0 1 21.5 4.324ZM8.794 9.882H6.147v8.47h2.647v-8.47Zm.238-2.911a1.525 1.525 0 0 0-1.514-1.536h-.047a1.535 1.535 0 0 0 0 3.07 1.525 1.525 0 0 0 1.561-1.487v-.047Zm9.82 6.236c0-2.546-1.62-3.536-3.229-3.536a3.017 3.017 0 0 0-2.678 1.366h-.074V9.882h-2.489v8.47h2.647v-4.504a1.757 1.757 0 0 1 1.589-1.896h.1c.842 0 1.467.53 1.467 1.864v4.537h2.647l.02-5.146Z"/></svg>
